docs/assets/img/details/btnIcons/video-camera.svg

<?xml version="1.0" encoding="UTF-8"?>
<svg width="30px" height="19px" viewBox="0 0 30 19" version="1.1" xmlns="http://www.w3.org/2000/svg" xmlns:xlink="http://www.w3.org/1999/xlink">
    <title>video-camera</title>
    <g id="Welcome" stroke="none" stroke-width="1" fill="none" fill-rule="evenodd">
        <g id="lpw-sale-properties-detailed-page-1.1(expanded)" transform="translate(-1650.000000, -768.000000)" fill="#FFFFFF" fill-rule="nonzero">
            <g id="Bitmap" transform="translate(1290.000000, 492.000000)">
                <g id="video-camera" transform="translate(360.000000, 276.000000)">
                    <path d="M29.6886586,1.69134072 C29.4954979,1.57652577 29.2566539,1.57204279 29.0595207,1.67988411 L22.1762447,5.45009702 L22.1762447,3.18791946 C22.1742585,1.42808833 20.7526152,0.00199244966 18.9982786,0 L3.1779661,0 C1.42362953,0.00199244966 0.00198622881,1.42808833 0,3.18791946 L0,15.7752202 C0.00198622881,17.5350514 1.42362953,18.9611472 3.1779661,18.9631397 L18.9982786,18.9631397 C20.7526152,18.9611472 22.1742585,17.5350514 22.1762447,15.7752202 L22.1762447,13.554137 L29.0597689,17.3243498 C29.2566539,17.4321912 29.4957461,17.4279572 29.6886586,17.3131423 C29.8818194,17.1980783 30,16.9896183 30,16.7647205 L30,2.23951342 C30,2.01436661 29.8815711,1.80615562 29.6886586,1.69134072 Z M20.9045617,15.7754693 C20.9035686,16.8314676 20.0504833,17.6869757 18.9977821,17.6882209 L3.1779661,17.6882209 C2.12526483,17.6869757 1.27242782,16.8314676 1.27118644,15.7754693 L1.27118644,3.18791946 C1.27242782,2.13217018 2.12526483,1.27641305 3.1779661,1.27516779 L18.9982786,1.27516779 C20.0507316,1.27641305 20.9038169,2.13217018 20.9050583,3.18791946 L20.9045617,15.7754693 Z M28.7288136,15.6902921 L22.1762447,12.1013921 L22.1762447,6.90284186 L28.7288136,3.31419098 L28.7288136,15.6902921 Z" id="Shape"></path>
                </g>
            </g>
        </g>
    </g>
</svg>

<svg width="30" height="19" xmlns="http://www.w3.org/2000/svg"><path d="M29.689 1.691a.634.634 0 00-.63-.011l-6.883 3.77V3.188A3.187 3.187 0 0018.998 0H3.178A3.187 3.187 0 000 3.188v12.587a3.187 3.187 0 003.178 3.188h15.82a3.187 3.187 0 003.178-3.188v-2.22l6.884 3.77a.634.634 0 00.94-.56V2.24a.638.638 0 00-.311-.549zm-8.784 14.084a1.912 1.912 0 01-1.907 1.913H3.178a1.912 1.912 0 01-1.907-1.913V3.188a1.912 1.912 0 011.907-1.913h15.82a1.912 1.912 0 011.907 1.913v12.587zm7.824-.085l-6.553-3.589V6.903l6.553-3.589V15.69z" fill="#FFF"/></svg>
